!!!COA:	Josquin des Prez
!!!CDT:	~1450-1521/08/27
!!!OPR:	Missa Mater patris
!!!ONM:	4
!!!OTL:	Sanctus
!!!AGN:	Mass; Sanctus
!!!SCT:	NJE 10.1
!!!SCA:	New Josquin Edition 10.1
!!!voices: 4
!!!voices-OPR: 4(-5)
**kern	**kern	**kern	**kern
*staff4	*staff3	*staff2	*staff1
*Ivox	*Ivox	*Ivox	*Ivox
*I"Bassus	*I"Tenor	*I"Altus1	*I"Altus2
*I'B	*I'T	*I'A1	*I'A2
*>[A,B,C,D]	*>[A,B,C,D]	*>[A,B,C,D]	*>[A,B,C,D]
*>Sanctus[A]	*>Sanctus[A]	*>Sanctus[A]	*>Sanctus[A]
*>Pleni[B]	*>Pleni[B]	*>Pleni[B]	*>Pleni[B]
*>Osanna[C]	*>Osanna[C]	*>Osanna[C]	*>Osanna[C]
*>Benedictus[D]	*>Benedictus[D]	*>Benedictus[D]	*>Benedictus[D]
*>A	*>A	*>A	*>A
*clefF4	*clefGv2	*clefGv2	*clefGv2
*k[b-]	*k[b-]	*k[b-]	*k[b-]
*M2/1	*M2/1	*M2/1	*M2/1
*met(C|)	*met(C|)	*met(C|)	*met(C|)
=1-	=1-	=1-	=1-
!!section: Sanctus
!!!OMD: Sanctus
0G	0r	0r	0r
=2	=2	=2	=2
1G	0r	0r	0r
1F	.	.	.
=3	=3	=3	=3
1.B-	0r	0G	0r
2G\	.	.	.
=4	=4	=4	=4
1B-	0r	1G	0r
1c	.	1F	.
=5	=5	=5	=5
1d	0r	1.B-	0r
2G\	.	.	.
[2d\	.	2G/	.
=6	=6	=6	=6
2d\]	0r	1B-	0r
4c\	.	.	.
4B-\	.	.	.
1A	.	1c	.
=7	=7	=7	=7
2r	0r	1d	0r
2D\	.	.	.
2E\	.	2G/	.
2D\	.	[2d\	.
=8	=8	=8	=8
2E\	0r	2d\]	0r
1G	.	4c\	.
.	.	4B-\	.
.	.	1A	.
4F\	.	.	.
4E\	.	.	.
=9	=9	=9	=9
1F	0r	2r	0r
.	.	2D/	.
2r	.	2E/	.
2F\	.	2D/	.
=10	=10	=10	=10
2G\	0r	2E/	0r
1B-	.	1G	.
4A\	.	4F/	.
4G\	.	4E/	.
=11	=11	=11	=11
2A\	0r	1F	0r
2D\	.	.	.
2E\	.	2r	.
2D\	.	2F/	.
=12	=12	=12	=12
2E\	0r	2G/	0r
2D\	.	1B-	.
1d	.	.	.
.	.	4A/	.
.	.	4G/	.
=13	=13	=13	=13
2r	0r	2A/	0r
2d\	.	2D/	.
2c\	.	2E/	.
2d\	.	2D/	.
=14	=14	=14	=14
2G\	0r	2E/	0r
2.d\	.	2D/	.
.	.	1d	.
4c\	.	.	.
4B-\	.	.	.
4A\	.	.	.
=15	=15	=15	=15
2G\	0r	2r	0r
2B-\	.	2d\	.
2A\	.	2c\	.
2D\	.	2d\	.
=16	=16	=16	=16
2E\	0r	2G/	0r
2D\	.	2.d\	.
2E\	.	.	.
.	.	4c\	.
2D\	.	4B-\	.
.	.	4A/	.
=17	=17	=17	=17
4E\	0r	2G/	0r
4D\	.	.	.
1G	.	2B-\	.
.	.	1A	.
2F#i\	.	.	.
=18	=18	=18	=18
1G	0r	1G	0r
1r	.	1r	.
=19	=19	=19	=19
0GG	0G	0B-	0d
=20	=20	=20	=20
0E-	0C	0G	0g
=21	=21	=21	=21
0D	0F	1A	0f
.	.	1B-	.
=22	=22	=22	=22
0C	0G	0c	0e
=23	=23	=23	=23
1.D	0F	1A	[0f
.	.	[1d	.
2BB-/	.	.	.
=24	=24	=24	=24
1BB-	1B-	1d]	0f]
1F	1A	1c	.
=25	=25	=25	=25
1BB-	1B-	1d	0f
1F	1A	[1c	.
=26	=26	=26	=26
1E-	1G	2c\]	1g
.	.	2B-\	.
1D	[1F	[1B-	1d
=27	=27	=27	=27
0C	1F]	1B-]	0e-i
.	1E-i	1A	.
=28	=28	=28	=28
0BB-	0F	0B-	0d
=29	=29	=29	=29
1.BB-	0r	1r	0r
.	.	[1B-	.
4AA/	.	.	.
4GG/	.	.	.
=30	=30	=30	=30
2GG/	0r	1B-]	0r
2BB-/	.	.	.
2C/	.	1A	.
2D\	.	.	.
=31	=31	=31	=31
2GG/	0r	1B-	0r
1D	.	.	.
.	.	[1A	.
2C/	.	.	.
=32	=32	=32	=32
2D\	0r	2A/]	0r
2BB-/	.	2G/	.
2C/	.	[1G	.
[2E-i\	.	.	.
=33	=33	=33	=33
4E-\]	0r	1G]	0r
4D\	.	.	.
4C/	.	.	.
4BB-/	.	.	.
1AA	.	1F#i	.
=34	=34	=34	=34
1.GG	1r	1G	1r
.	[1G	[1B-	[1d
2AA/	.	.	.
=35	=35	=35	=35
2BB-/	1G]	1B-]	1d]
2C/	.	.	.
1D	1F	1A	1d
=36	=36	=36	=36
1GG	1G	1B-	1d
1D	1F	[1A	1d
=37	=37	=37	=37
1C	1E-i	2A/]	1e-i
.	.	2G/	.
1GG	[1D	[1G	1B-
=38	=38	=38	=38
0AA	1D]	1G]	0c
.	1C	1F#i	.
=39	=39	=39	=39
0GG	0D	[0Gl	0B-
=40	=40	=40	=40
[0C	[0E-i	0G_	[0c
=41	=41	=41	=41
0C]	0E-]	0G_	0c]
=42	=42	=42	=42
0GGl	0Dl	0G]	0B-l
!!LO:LB:i:g=z
=43||	=43||	=43||	=43||
*>B	*>B	*>B	*>B
*clefF4	*clefGv2	*clefGv2	*clefGv2
*k[b-]	*k[b-]	*k[b-]	*k[b-]
*M2/1	*M2/1	*M2/1	*M2/1
*met(C|)	*met(C|)	*met(C|)	*met(C|)
!!!OMD: Pleni sunt celi
!!section: Pleni sunt celi
!	!	!LO:TX:Z=10:t=Canon at the upper second	!
0r	0r	1.G	0r
.	.	4F/	.
.	.	4G/	.
=44	=44	=44	=44
0r	0r	2A/	1.A
.	.	2F/	.
.	.	1F	.
.	.	.	4G/
.	.	.	4A/
=45	=45	=45	=45
0r	0r	2r	2B-\
.	.	1B-	2G/
.	.	.	1G
.	.	4A/	.
.	.	4B-\	.
=46	=46	=46	=46
0r	0r	2c\	2r
.	.	2A/	1c
.	.	1A	.
.	.	.	4B-\
.	.	.	4c\
=47	=47	=47	=47
0r	0r	2r	2d\
.	.	1G	2B-\
.	.	.	1B-
.	.	4F/	.
.	.	4G/	.
=48	=48	=48	=48
0r	0r	4A/	2r
.	.	4G/	.
.	.	4F/	1A
.	.	4E/	.
.	.	1F	.
.	.	.	4G/
.	.	.	4A/
=49	=49	=49	=49
0r	0r	1G	4B-\
.	.	.	4A/
.	.	.	4G/
.	.	.	4F/
.	.	2r	1G
.	.	2G/	.
=50	=50	=50	=50
0r	0r	2F/	1A
.	.	2.A/	.
.	.	.	2r
.	.	4B-\	.
.	.	4c\	2A/
.	.	4A/	.
=51	=51	=51	=51
0r	0r	2B-\	2G/
.	.	2G/	2.B-\
.	.	1G	.
.	.	.	4c\
.	.	.	4d\
.	.	.	4B-\
=52	=52	=52	=52
0r	0r	1r	2c\
.	.	.	2A/
.	.	1c	1A
=53	=53	=53	=53
0r	0r	2B-\	1r
.	.	2.d\	.
.	.	.	1d
.	.	4e\	.
.	.	4f\	.
.	.	4d\	.
=54	=54	=54	=54
0r	0r	2e\	2c\
.	.	2c\	2.e\
.	.	1c	.
.	.	.	4f\
.	.	.	4g\
.	.	.	4e\
=55	=55	=55	=55
0r	0r	2r	2f\
.	.	1f	2d\
.	.	.	1d
.	.	4e\	.
.	.	4d\	.
=56	=56	=56	=56
0r	0r	2e\	2r
.	.	2c\	1g
.	.	1e	.
.	.	.	4f\
.	.	.	4e\
=57	=57	=57	=57
0r	0r	1d	2f\
.	.	.	2d\
.	.	2r	1f
.	.	2d\	.
=58	=58	=58	=58
0r	0r	2c\	1e-i
.	.	2A/	.
.	.	1c	2r
.	.	.	2e-i\
=59	=59	=59	=59
0r	0r	2B-\	2d\
.	.	2G/	2B-\
.	.	1B-	1d
=60	=60	=60	=60
0r	0r	2A/	2c\
.	.	1c	2A/
.	.	.	1c
.	.	4B-\	.
.	.	4A/	.
=61	=61	=61	=61
0r	0r	2G/	2B-\
.	.	1B-	1d
.	.	4A/	4c\
.	.	4G/	4B-\
=62	=62	=62	=62
0r	0r	1F	2A/
.	.	.	1c
.	.	2.c\	.
.	.	.	4B-\
.	.	4d\	4A/
=63	=63	=63	=63
0r	0r	2e-i\	1G
.	.	2d\	.
.	.	2B-\	2.d\
.	.	[2d\	.
.	.	.	4e\
=64	=64	=64	=64
0r	0r	2d\]	2f\
.	.	2c\	2e\
.	.	2A/	2c\
.	.	[2c\	[2e-i\
=65	=65	=65	=65
0r	0r	2c\]	2e-\]
.	.	2B-\	2d\
.	.	1G	2B-\
.	.	.	[2d\
=66	=66	=66	=66
0r	0r	1r	2d\]
.	.	.	2c\
.	.	1c	1A
=67	=67	=67	=67
0r	0r	2.B-\	1r
.	.	4A/	.
.	.	2F/	1d
.	.	2G/	.
=68	=68	=68	=68
0r	0r	1C	2.c\
.	.	.	4B-\
.	.	2r	2G/
.	.	2c\	2A/
=69	=69	=69	=69
0r	0r	2d\	1D
.	.	1f	.
.	.	.	2r
.	.	4e\	2d\
.	.	4d\	.
=70	=70	=70	=70
0r	0r	1c	2e\
.	.	.	1g
.	.	1B-	.
.	.	.	4f\
.	.	.	4e\
=71	=71	=71	=71
0r	0r	2r	1d
.	.	2B-\	.
.	.	2A/	1c
.	.	[2c\	.
=72	=72	=72	=72
0r	0r	2c\]	2r
.	.	4B-\	2c\
.	.	4A/	.
.	.	1G	2B-\
.	.	.	[2d\
=73	=73	=73	=73
0r	0r	1F	2d\]
.	.	.	4c\
.	.	.	4B-\
.	.	2r	1A
.	.	2F/	.
=74	=74	=74	=74
0r	0r	2G/	1G
.	.	2C/	.
.	.	1G	2r
.	.	.	2G/
=75	=75	=75	=75
0r	0r	1F	2A/
.	.	.	2D/
.	.	2r	1A
.	.	2F/	.
=76	=76	=76	=76
0r	0r	2G/	1G
.	.	2C/	.
.	.	1G	2r
.	.	.	2G/
=77	=77	=77	=77
0r	0r	1F	2A/
.	.	.	2D/
.	.	2r	1A
.	.	2c\	.
=78	=78	=78	=78
0r	0r	2d\	1G
.	.	2e\	.
.	.	2f\	2r
.	.	2B-\	2d\
=79	=79	=79	=79
0r	0r	2c\	2e\
.	.	2d\	2f\
.	.	2G/	2g\
.	.	2A/	2c\
=80	=80	=80	=80
0r	0r	2B-\	2d\
.	.	2.c\	2e\
.	.	.	2A/
.	.	4B-\	.
.	.	2G/	2B-\
=81	=81	=81	=81
0r	0r	2A/	2c\
.	.	2B-\	2.d\
.	.	2F/	.
.	.	.	4c\
.	.	[2f\	2A/
=82	=82	=82	=82
0r	0r	2f\]	2B-\
.	.	2e\	2c\
.	.	2d\	2G/
.	.	2c\	[2g\
=83	=83	=83	=83
0r	0r	2B-\	2g\]
.	.	2A/	2f\
.	.	2.G/	2e\
.	.	.	2d\
.	.	8F/L	.
.	.	8G/J	.
=84	=84	=84	=84
0r	0r	2A/	2c\
.	.	1G	2B-\
.	.	.	2.A/
.	.	2F/	.
.	.	.	8G/L
.	.	.	8A/J
=85	=85	=85	=85
0r	0r	2G/	2B-\
.	.	2A/	1A
.	.	1B-	.
.	.	.	2G/
=86	=86	=86	=86
0r	0r	0Al	0Al
!!LO:LB:i:g=z
=87||	=87||	=87||	=87||
*>C	*>C	*>C	*>C
*clefF4	*clefGv2	*clefGv2	*clefGv2
*k[b-]	*k[b-]	*k[b-]	*k[b-]
*M2/1	*M2/1	*M2/1	*M2/1
*met(C|)	*met(C|)	*met(C|)	*met(C|)
!!!OMD: Osanna
!!section: Osanna
1.G	0r	0r	0r
4F\	.	.	.
4G\	.	.	.
=88	=88	=88	=88
2A\	0r	0r	0r
1G	.	.	.
2F\	.	.	.
=89	=89	=89	=89
2.G\	0r	1.G	0r
4F\	.	.	.
2E\	.	.	.
2D\	.	4F/	.
.	.	4G/	.
=90	=90	=90	=90
2C/	0r	2A/	0r
2BB-/	.	1G	.
1AA	.	.	.
.	.	2F/	.
=91	=91	=91	=91
2GG/	0r	4G/	0r
.	.	4A/	.
1G	.	4B-\	.
.	.	4c\	.
.	.	1d	.
4F\	.	.	.
4G\	.	.	.
=92	=92	=92	=92
2A\	0r	2c\	0r
1G	.	2B-\	.
.	.	1A	.
2F\	.	.	.
=93	=93	=93	=93
2G\	0r	2G/	0r
1B-	.	1d	.
2A\	.	4c\	.
.	.	4d\	.
=94	=94	=94	=94
2G\	0r	2e\	0r
2F\	.	1d	.
1E	.	.	.
.	.	2c\	.
=95	=95	=95	=95
2D\	0r	2d\	0r
1A	.	1f	.
4G\	.	2e\	.
4A\	.	.	.
=96	=96	=96	=96
2B-\	0r	2d\	0r
1A	.	2c\	.
.	.	1B-	.
2G\	.	.	.
=97	=97	=97	=97
2A\	0r	1.A	0r
1F	.	.	.
2E\	.	4G/	.
.	.	4A/	.
=98	=98	=98	=98
2D\	0r	2B-\	0r
2C/	.	1A	.
1BB-	.	.	.
.	.	2G/	.
=99	=99	=99	=99
1.AA	1.E	1.A	1.c
4BB-/	4D/	4G/	4B-\
4AA/	4E/	4A/	4c\
=100	=100	=100	=100
2D\	2F/	2B-\	2d\
4AA/	1E	1A	1c
4BB-/	.	.	.
4C/	.	.	.
4AA/	.	.	.
2BB-/	2D/	2G/	2B-\
=101	=101	=101	=101
0AA	1E	1A	1c
.	1r	2r	1r
.	.	2A/	.
=102	=102	=102	=102
2r	0r	2B-\	0r
2A\	.	2c\	.
2B-\	.	2d\	.
2G\	.	2e\	.
=103	=103	=103	=103
2A\	0r	2f\	0r
2B-\	.	2g\	.
2G\	.	2e\	.
[2A\	.	2f\	.
=104	=104	=104	=104
2A\]	0r	4e\	0r
.	.	4d\	.
2F\	.	1d	.
1E	.	.	.
.	.	2c#i\	.
=105	=105	=105	=105
1.D	1.A	1.d	1.f
4E\	4G/	4c\	4e\
4D\	4A/	4d\	4f\
=106	=106	=106	=106
2G\	2B-\	2e\	2g\
4D\	1A	1d	1f
4E\	.	.	.
4F\	.	.	.
4D\	.	.	.
2E\	2G/	2c#i\	2e\
=107	=107	=107	=107
1.D	1.A	1.d	1.f
4E\	4G/	4c\	4e\
4D\	4A/	4d\	4f\
=108	=108	=108	=108
2G\	2B-\	2e\	2g\
4D\	1A	1d	1f
4E\	.	.	.
4F\	.	.	.
4D\	.	.	.
2E\	2G/	2c#i\	2e\
=109	=109	=109	=109
1D	1A	1d	1f
1r	1r	2r	1r
.	.	[2d\	.
=110	=110	=110	=110
2.d\	0r	4d\]	0r
.	.	4e\	.
.	.	2f\	.
4e\	.	.	.
2f\	.	2B-\	.
2d\	.	[2f\	.
=111	=111	=111	=111
2.f\	0r	4f\]	0r
.	.	4e\	.
.	.	4d\	.
4e\	.	4c\	.
4d\	.	2B-\	.
4c\	.	.	.
4B-\	.	[2f\	.
4A\	.	.	.
=112	=112	=112	=112
2G\	0r	4f\]	0r
.	.	4e\	.
2F\	.	2d\	.
2E-\	.	4c\	.
.	.	4B-\	.
2D\	.	[2B-\	.
=113	=113	=113	=113
1C	0r	2B-\]	0r
.	.	2A/	.
1r	.	1B-	.
=114	=114	=114	=114
1.BB-	2r	2r	2r
.	1F	1B-	1d
4C/	4E-i/	4A/	4c\
4BB-/	4F/	4B-\	4d\
=115	=115	=115	=115
2E-i\	2G/	2c\	2e-i\
4BB-/	1F	1B-	1d
4C/	.	.	.
4D\	.	.	.
4BB-/	.	.	.
2C/	2E-i/	2A/	2c\
=116	=116	=116	=116
1.BB-	1.F	1.B-	1.d
4C/	4E-i/	4A/	4c\
4BB-/	4F/	4B-\	4d\
=117	=117	=117	=117
2E-i\	2G/	2c\	2e-i\
4BB-/	1F	1B-	1d
4C/	.	.	.
4D\	.	.	.
4BB-/	.	.	.
2C/	2E-i/	2A/	2c\
=118	=118	=118	=118
0BB-	1F	1B-	1d
.	1r	2r	1r
.	.	[2B-\	.
=119	=119	=119	=119
2.B-\	0r	4B-\]	0r
.	.	4c\	.
.	.	2d\	.
4c\	.	.	.
2d\	.	2G/	.
2G\	.	[2d\	.
=120	=120	=120	=120
2.d\	0r	4d\]	0r
.	.	4c\	.
.	.	4B-\	.
4c\	.	4A/	.
4B-\	.	2G/	.
4A\	.	.	.
4G\	.	[2d\	.
4F\	.	.	.
=121	=121	=121	=121
2E\	0r	4d\]	0r
.	.	4c\	.
2D\	.	2B-\	.
2C/	.	4A/	.
.	.	4G/	.
2BB-/	.	[2G/	.
=122	=122	=122	=122
1AA	0r	2G/]	0r
.	.	2F#i/	.
1r	.	1G	.
=123	=123	=123	=123
1.GG	2r	2r	2r
.	1D	1G	1B-
4AA/	4C/	4F/	4A/
4GG/	4D/	4G/	4B-\
=124	=124	=124	=124
2C/	2E-i/	2A/	2c\
4GG/	1D	1G	1B-
4AA/	.	.	.
4BB-/	.	.	.
4GG/	.	.	.
2AA/	2C/	2F#i/	2A/
=125	=125	=125	=125
1.GG	1.D	1.G	1.B-
4AA/	4C/	4F/	4A/
4GG/	4D/	4G/	4B-\
=126	=126	=126	=126
2C/	2E-i/	2A/	2c\
4GG/	1D	1G	1B-
4AA/	.	.	.
4BB-/	.	.	.
4GG/	.	.	.
2AA/	2C/	2F#i/	2A/
=127	=127	=127	=127
1GG	0D	1G	1B-
[1GG	.	2r	2r
.	.	[2G/	[2B-\
=128	=128	=128	=128
1GG]	0r	4G/]	4B-\]
.	.	4F/	4A/
.	.	4G/	4B-\
.	.	4A/	4c\
1G	.	4B-\	4d\
.	.	4A/	4c\
.	.	4B-\	4d\
.	.	4c\	4e\
=129	=129	=129	=129
0D	0r	4d\	4f\
.	.	4c\	4e\
.	.	4d\	4f\
.	.	4e\	4g\
.	.	4f\	4a\
.	.	4e\	4g\
.	.	4d\	4f\
.	.	4c\	4e\
=130	=130	=130	=130
1D	0r	4d\	4f\
.	.	4c\	4e\
.	.	4B-\	4d\
.	.	4A/	4c\
2G\	.	2B-\	2d\
[2C/	.	[2c\	[2e-i\
=131	=131	=131	=131
4C/]	0r	4c\]	4e-\]
4D\	.	4B-\	4d\
2E-i\	.	2G/	1g
1D	.	1A	.
.	.	.	2f#i\
=132	=132	=132	=132
[0GGl	1.d	[0Gl	[0gl
.	2B-\	.	.
=133	=133	=133	=133
0GG]	0B-l	0G]	0g]
!!LO:LB:i:g=z
!!LO:TX:rj:i:t=fine
=134||	=134||	=134||	=134||
*>D	*>D	*>D	*>D
*clefF4	*clefGv2	*clefGv2	*clefGv2
*k[b-]	*k[b-]	*k[b-]	*k[b-]
*M2/1	*M2/1	*M2/1	*M2/1
*met(C|)	*met(C|)	*met(C|)	*met(C|)
!!!OMD: Benedictus
!!section: Benedictus
!	!	!	!LO:TX:Z=10:t=Canon at the lower second
0r	0r	0r	1d
.	.	.	1d
=135	=135	=135	=135
0r	0r	1c	2c\
.	.	.	2A/
.	.	1c	2.c\
.	.	.	4B-\
=136	=136	=136	=136
0r	0r	2B-\	1G
.	.	2G/	.
.	.	2.B-\	1r
.	.	4A/	.
=137	=137	=137	=137
0r	0r	1F	1A
.	.	1r	1A
=138	=138	=138	=138
0r	0r	1G	2G/
.	.	.	2E/
.	.	1G	2.G/
.	.	.	4F/
=139	=139	=139	=139
0r	0r	2F/	1D
.	.	2D/	.
.	.	2.F/	2r
.	.	.	[2A/
.	.	4E/	.
=140	=140	=140	=140
0r	0r	1C	2A/]
.	.	.	2G/
.	.	2r	2.B-\
.	.	[2G/	.
.	.	.	4c\
=141	=141	=141	=141
0r	0r	2G/]	1d
.	.	2F/	.
.	.	2.A/	[1c
.	.	4B-\	.
=142	=142	=142	=142
0r	0r	1c	2c\]
.	.	.	4B-\
.	.	.	4A/
.	.	[1B-	1G
=143	=143	=143	=143
0r	0r	2B-\]	2r
.	.	4A/	1d
.	.	4G/	.
.	.	1F	.
.	.	.	2c\
=144	=144	=144	=144
0r	0r	2r	2.e\
.	.	1c	.
.	.	.	4f\
.	.	.	1g
.	.	2B-\	.
=145	=145	=145	=145
0r	0r	2.d\	1.f
.	.	4e\	.
.	.	1f	.
.	.	.	4e\
.	.	.	4d\
=146	=146	=146	=146
0r	0r	1.e	1c
.	.	.	[1g
.	.	4d\	.
.	.	4c\	.
=147	=147	=147	=147
0r	0r	1B-	2g\]
.	.	.	2f\
.	.	[1f	2.d\
.	.	.	4e\
=148	=148	=148	=148
0r	0r	2f\]	2f\
.	.	2e\	2g\
.	.	2.c\	1e
.	.	4d\	.
=149	=149	=149	=149
0r	0r	2e\	2r
.	.	2f\	2d\
.	.	1d	1f
=150	=150	=150	=150
0r	0r	2r	1e
.	.	2c\	.
.	.	1e-i	1c
=151	=151	=151	=151
0r	0r	1d	2r
.	.	.	2B-\
.	.	1B-	1d
=152	=152	=152	=152
0r	0r	2r	1c
.	.	2A/	.
.	.	1c	1A
=153	=153	=153	=153
0r	0r	1B-	2r
.	.	.	2G/
.	.	1G	1B-
=154	=154	=154	=154
0r	0r	2r	1A
.	.	2F/	.
.	.	1A	1F
=155	=155	=155	=155
0r	0r	1G	2r
.	.	.	2.G/
.	.	1E	.
.	.	.	4F/
.	.	.	2G/
=156	=156	=156	=156
0r	0r	2r	2A/
.	.	2.F/	2D/
.	.	.	2r
.	.	4E/	.
.	.	2F/	2A/
=157	=157	=157	=157
0r	0r	2G/	2B-\
.	.	2C/	2c\
.	.	2r	2.d\
.	.	2G/	.
.	.	.	4B-\
=158	=158	=158	=158
0r	0r	2A/	2c\
.	.	2B-\	2d\
.	.	2.c\	1A
.	.	4A/	.
=159	=159	=159	=159
0r	0r	2B-\	2r
.	.	2c\	2A/
.	.	1G	2B-\
.	.	.	2G/
=160	=160	=160	=160
0r	0r	2r	2A/
.	.	2G/	2B-\
.	.	2A/	2c\
.	.	2F/	2A/
=161	=161	=161	=161
0r	0r	2G/	2B-\
.	.	2A/	2c\
.	.	2B-\	1d
.	.	2G/	.
=162	=162	=162	=162
0r	0r	2A/	2r
.	.	2B-\	2d\
.	.	1c	2e\
.	.	.	2c\
=163	=163	=163	=163
0r	0r	2r	2d\
.	.	2c\	2e\
.	.	2d\	2f\
.	.	2B-\	2d\
=164	=164	=164	=164
0r	0r	2c\	2e\
.	.	2d\	2f\
.	.	2e\	1g
.	.	2c\	.
=165	=165	=165	=165
0r	0r	2d\	2r
.	.	2e\	2G/
.	.	1f	2A/
.	.	.	2F/
=166	=166	=166	=166
0r	0r	2r	2G/
.	.	2F/	2A/
.	.	2G/	2B-\
.	.	2E/	2c\
=167	=167	=167	=167
0r	0r	2F/	2d\
.	.	2G/	2B-\
.	.	2A/	2c\
.	.	2B-\	2d\
=168	=168	=168	=168
0r	0r	2c\	2e\
.	.	2A/	2f\
.	.	2B-\	2g\
.	.	2c\	2e\
=169	=169	=169	=169
0r	0r	2d\	2f\
.	.	2e\	2g\
.	.	2f\	1a
.	.	2d\	.
=170	=170	=170	=170
0r	0r	2e\	2r
.	.	2f\	2a\
.	.	1g	2b-\
.	.	.	2g\
=171	=171	=171	=171
0r	0r	2r	1b-
.	.	2g\	.
.	.	2a\	1a
.	.	2f\	.
=172	=172	=172	=172
0r	0r	1a	2r
.	.	.	2f\
.	.	1g	2g\
.	.	.	2e\
=173	=173	=173	=173
0r	0r	2r	1g
.	.	2e\	.
.	.	2f\	1f
.	.	2d\	.
=174	=174	=174	=174
0r	0r	1f	2r
.	.	.	2d\
.	.	1e	2e\
.	.	.	2c\
=175	=175	=175	=175
0r	0r	2r	1e
.	.	2c\	.
.	.	2d\	1d
.	.	2B-\	.
=176	=176	=176	=176
0r	0r	1d	2r
.	.	.	2B-\
.	.	1c	2c\
.	.	.	2A/
=177	=177	=177	=177
0r	0r	2r	1c
.	.	2A/	.
.	.	2B-\	1B-
.	.	2G/	.
=178	=178	=178	=178
0r	0r	1B-	2r
.	.	.	2G/
.	.	1A	2A/
.	.	.	[2c\
=179	=179	=179	=179
0r	0r	2r	2c\]
.	.	2F/	4B-\
.	.	.	4A/
.	.	2G/	2B-\
.	.	[2B-\	2G/
=180	=180	=180	=180
0r	0r	2B-\]	1d
.	.	4A/	.
.	.	4G/	.
.	.	2A/	2c\
.	.	2F/	2f\
=181	=181	=181	=181
0r	0r	1c	2e\
.	.	.	1d
.	.	2B-\	.
.	.	2e-i\	2c\
=182	=182	=182	=182
0r	0r	2d\	2f\
.	.	1c	2e\
.	.	.	1d
.	.	2B-\	.
=183	=183	=183	=183
0r	0r	2e-i\	2c\
.	.	2d\	2B-\
.	.	1c	1e-
=184	=184	=184	=184
0r	0r	2B-\	2d\
.	.	2A/	1c
.	.	1d	.
.	.	.	2B-\
=185	=185	=185	=185
0r	0r	2c\	2e-i\
.	.	1B-	2d\
.	.	.	1c
.	.	2A/	.
=186	=186	=186	=186
0r	0r	2d\	2B-\
.	.	2c\	2A/
.	.	1B-	1d
=187	=187	=187	=187
0r	0r	2A/	2c\
.	.	2G/	1B-
.	.	1c	.
.	.	.	2A/
=188	=188	=188	=188
0r	0r	2B-\	2d\
.	.	1A	2c\
.	.	.	1B-
.	.	2G/	.
=189	=189	=189	=189
0r	0r	2c\	2A/
.	.	2B-\	2.G/
.	.	1A	.
.	.	.	4F#i/
.	.	.	4F#i/
.	.	.	4E/
=190	=190	=190	=190
0rl	0rl	0Gl	0Gl
!!LO:TX:i:Y=40:rj:t=Osanna ut supra
=||	=||	=||	=||
*-	*-	*-	*-
!!!RDF**kern: l=long note in original notation
!!!RDF**kern: i=editorial accidental
!!!ENC: Will Watson 17/08/2011
!!!END: 2011/08/17/
!!!EED:	Jesse Rodin
!!!EEV: 2013/10/25/
!!attribution-level@Jos: 3 (tricky)
!!!ONB:	Translated from MusicXML and edited on 2011/10/28/ by Craig Sapp
!!muse2ps: T^@{OPR}^u^@{ONM}{. }@{OTL}^C^@{COA}?\n@{SCT}^i2I100v90,90,90,90,150c80Q16
